X:2
T:La gigue marche de Romilly [ou Rumilly] [ok]
R:
S:
N:
A:Champagne
G:
O:France
Z:<anamnese@laposte.net>
M:2/4
L:1/8
Q:1/4=135
K:C
cd e2-|ef ed | Bc d2-|de c2 :| 
(3Gce (3Gce | (3Gce ed | (3GBd (3GBd | (3GBd c2 :|
